public/images/SEO.svg

<svg xmlns="http://www.w3.org/2000/svg" xmlns:xlink="http://www.w3.org/1999/xlink" width="1200" zoomAndPan="magnify" viewBox="0 0 900 675.000002" height="900" preserveAspectRatio="xMidYMid meet" version="1.0"><path fill="#fb653e" d="M 760.0625 571.308594 L 679.046875 480.191406 C 673.257812 473.679688 665.300781 470.066406 656.621094 469.34375 C 647.9375 468.617188 639.257812 471.511719 632.75 477.296875 L 619.003906 489.589844 L 588.621094 454.878906 C 656.621094 389.070312 681.214844 291.441406 652.28125 201.042969 L 713.765625 139.574219 L 730.40625 156.207031 C 733.300781 159.097656 737.640625 159.820312 741.257812 159.097656 C 744.875 157.652344 747.765625 154.761719 748.488281 150.421875 L 766.574219 37.605469 C 767.296875 33.988281 765.851562 30.375 763.679688 28.203125 C 761.511719 26.035156 757.894531 24.589844 754.277344 25.3125 L 642.152344 43.390625 C 637.8125 44.113281 634.917969 47.007812 633.472656 50.621094 C 632.023438 54.238281 633.472656 58.578125 636.367188 61.46875 L 653.003906 78.101562 L 609.601562 120.769531 C 607.429688 117.878906 604.535156 114.984375 602.367188 112.09375 C 511.941406 10.125 354.96875 0 252.246094 90.398438 C 238.503906 102.691406 226.929688 115.707031 216.800781 129.449219 C 216.800781 129.449219 216.078125 130.171875 216.078125 130.171875 C 202.335938 148.972656 191.484375 169.945312 183.527344 191.640625 C 182.804688 194.535156 182.078125 195.980469 182.078125 197.425781 C 158.929688 266.128906 166.164062 343.507812 205.949219 407.871094 L 135.058594 407.871094 C 129.273438 407.148438 124.207031 412.210938 124.207031 417.996094 L 124.207031 633.503906 C 124.207031 639.289062 129.273438 644.351562 135.058594 644.351562 L 502.539062 644.351562 C 508.324219 644.351562 513.390625 639.289062 513.390625 633.503906 L 513.390625 504.054688 C 534.367188 495.375 554.621094 483.082031 572.707031 468.617188 L 603.089844 503.332031 L 589.34375 515.625 C 582.835938 521.410156 579.21875 529.367188 578.496094 538.042969 C 577.769531 546.722656 580.664062 555.398438 586.453125 561.910156 L 667.472656 653.03125 C 679.769531 666.769531 696.40625 674 713.765625 674 C 728.234375 674 742.703125 668.9375 754.277344 658.816406 C 766.574219 647.96875 773.808594 632.78125 774.53125 616.871094 C 775.980469 599.515625 770.914062 583.605469 760.0625 571.308594 Z M 676.152344 70.871094 L 666.746094 61.46875 L 744.148438 49.175781 L 731.851562 126.554688 L 722.449219 117.15625 C 718.109375 112.816406 711.597656 112.816406 707.257812 117.15625 L 632.75 190.195312 L 515.558594 307.351562 L 456.964844 248.773438 C 452.625 244.433594 446.113281 244.433594 441.773438 248.773438 L 349.90625 339.894531 L 205.226562 195.980469 C 210.292969 181.519531 217.523438 167.777344 225.484375 155.484375 L 341.949219 271.914062 C 346.289062 276.253906 352.796875 276.253906 357.136719 271.914062 L 449.007812 180.792969 L 507.601562 239.371094 C 511.941406 243.710938 518.453125 243.710938 522.792969 239.371094 L 675.429688 87.503906 C 677.597656 85.335938 678.320312 82.441406 678.320312 79.550781 C 678.320312 76.65625 677.597656 73.039062 676.152344 70.871094 Z M 266.714844 107.753906 C 360.03125 25.3125 503.261719 33.988281 585.726562 127.277344 C 588.621094 130.171875 591.515625 133.789062 593.6875 137.402344 L 515.558594 215.507812 L 456.964844 156.929688 C 452.625 152.589844 446.113281 152.589844 441.773438 156.929688 L 349.90625 248.050781 L 238.503906 137.402344 C 247.183594 126.554688 256.589844 116.429688 266.714844 107.753906 Z M 491.6875 622.65625 L 145.910156 622.65625 L 145.910156 428.84375 L 491.6875 428.84375 Z M 502.539062 407.148438 L 231.992188 407.148438 C 192.207031 351.464844 181.355469 282.039062 197.992188 219.121094 L 341.949219 363.035156 C 344.117188 365.203125 347.011719 365.929688 349.90625 365.929688 C 352.796875 365.929688 355.691406 365.203125 357.863281 363.035156 L 449.730469 271.914062 L 508.324219 330.492188 C 512.667969 334.832031 519.175781 334.832031 523.515625 330.492188 L 635.640625 219.121094 C 657.34375 301.566406 631.300781 389.070312 566.921875 446.199219 C 551.003906 460.664062 532.921875 472.234375 514.113281 480.914062 L 514.113281 418.71875 C 513.390625 412.210938 508.324219 407.148438 502.539062 407.148438 Z M 740.53125 642.183594 C 723.894531 656.644531 698.578125 655.199219 684.109375 638.566406 L 603.089844 546.722656 C 600.917969 544.550781 600.195312 541.660156 600.195312 538.765625 C 600.195312 535.875 601.644531 532.980469 603.8125 531.535156 L 647.214844 493.207031 C 649.386719 491.761719 651.554688 490.3125 654.449219 490.3125 C 654.449219 490.3125 655.171875 490.3125 655.171875 490.3125 C 658.066406 490.3125 660.960938 491.761719 662.40625 493.929688 L 743.425781 585.773438 C 750.660156 593.730469 753.554688 603.851562 753.554688 614.699219 C 752.832031 625.546875 747.765625 634.949219 740.53125 642.183594 Z M 740.53125 642.183594 " fill-opacity="1" fill-rule="nonzero"/><path fill="#fb653e" d="M 174.84375 500.4375 C 174.84375 520.6875 191.484375 536.597656 211.015625 536.597656 L 216.800781 536.597656 C 224.757812 536.597656 231.269531 543.105469 231.269531 551.0625 C 231.269531 559.015625 224.757812 565.523438 216.800781 565.523438 L 185.695312 565.523438 C 179.910156 565.523438 174.84375 570.585938 174.84375 576.371094 C 174.84375 582.15625 179.910156 587.21875 185.695312 587.21875 L 216.800781 587.21875 C 237.058594 587.21875 252.972656 571.308594 252.972656 551.0625 C 252.972656 530.8125 236.332031 514.902344 216.800781 514.902344 L 211.015625 514.902344 C 203.058594 514.902344 196.546875 508.394531 196.546875 500.4375 C 196.546875 492.484375 203.058594 485.976562 211.015625 485.976562 L 242.121094 485.976562 C 247.90625 485.976562 252.972656 480.914062 252.972656 475.128906 C 252.972656 469.34375 247.90625 464.28125 242.121094 464.28125 L 211.015625 464.28125 C 191.484375 464.28125 174.84375 480.191406 174.84375 500.4375 Z M 174.84375 500.4375 " fill-opacity="1" fill-rule="nonzero"/><path fill="#fb653e" d="M 290.585938 587.21875 L 347.011719 587.21875 C 352.796875 587.21875 357.863281 582.15625 357.863281 576.371094 C 357.863281 570.585938 352.796875 565.523438 347.011719 565.523438 L 301.4375 565.523438 L 301.4375 536.597656 L 347.011719 536.597656 C 352.796875 536.597656 357.863281 531.535156 357.863281 525.75 C 357.863281 519.964844 352.796875 514.902344 347.011719 514.902344 L 301.4375 514.902344 L 301.4375 485.976562 L 347.011719 485.976562 C 352.796875 485.976562 357.863281 480.914062 357.863281 475.128906 C 357.863281 469.34375 352.796875 464.28125 347.011719 464.28125 L 290.585938 464.28125 C 284.800781 464.28125 279.738281 469.34375 279.738281 475.128906 L 279.738281 576.371094 C 279.738281 582.15625 284.800781 587.21875 290.585938 587.21875 Z M 290.585938 587.21875 " fill-opacity="1" fill-rule="nonzero"/><path fill="#fb653e" d="M 423.691406 587.21875 C 445.390625 587.21875 462.753906 569.863281 462.753906 548.167969 L 462.753906 502.609375 C 462.753906 480.914062 445.390625 463.558594 423.691406 463.558594 C 401.988281 463.558594 384.628906 480.914062 384.628906 502.609375 L 384.628906 548.167969 C 384.628906 569.863281 401.988281 587.21875 423.691406 587.21875 Z M 406.328125 503.332031 C 406.328125 493.929688 414.285156 485.976562 423.691406 485.976562 C 433.09375 485.976562 441.050781 493.929688 441.050781 503.332031 L 441.050781 548.890625 C 441.050781 558.292969 433.09375 566.25 423.691406 566.25 C 414.285156 566.25 406.328125 558.292969 406.328125 548.890625 Z M 406.328125 503.332031 " fill-opacity="1" fill-rule="nonzero"/></svg>

<svg xmlns="http://www.w3.org/2000/svg" width="1200" height="900" version="1.0" viewBox="0 0 900 675"><path fill="#fb653e" d="m760.063 571.309-81.016-91.118c-5.79-6.511-13.746-10.125-22.426-10.847a32.024 32.024 0 0 0-23.871 7.953l-13.746 12.293-30.383-34.711c68-65.809 92.594-163.438 63.66-253.836l61.485-61.469 16.64 16.633c2.895 2.89 7.235 3.613 10.852 2.89 3.617-1.445 6.508-4.335 7.23-8.675l18.086-112.817c.723-3.617-.722-7.23-2.894-9.402-2.168-2.168-5.785-3.613-9.403-2.89L642.152 43.39c-4.34.722-7.234 3.617-8.68 7.23-1.449 3.617 0 7.957 2.895 10.848l16.637 16.633-43.402 42.668c-2.172-2.891-5.067-5.786-7.235-8.676C511.941 10.125 354.97 0 252.247 90.398c-13.743 12.293-25.317 25.309-35.446 39.051l-.723.723c-13.742 18.8-24.594 39.773-32.55 61.469-.723 2.894-1.45 4.34-1.45 5.785-23.148 68.703-15.914 146.082 23.871 210.445h-70.89c-5.786-.723-10.852 4.34-10.852 10.125v215.508c0 5.785 5.066 10.848 10.852 10.848h367.48c5.785 0 10.852-5.063 10.852-10.848v-129.45c20.976-8.679 41.23-20.972 59.316-35.437l30.383 34.715-13.746 12.293c-6.508 5.785-10.125 13.742-10.848 22.418a32.013 32.013 0 0 0 7.957 23.867l81.02 91.121C679.77 666.77 696.406 674 713.766 674c14.468 0 28.937-5.063 40.511-15.184 12.297-10.847 19.532-26.035 20.254-41.945 1.45-17.355-3.617-33.266-14.468-45.562ZM676.153 70.87l-9.407-9.402 77.402-12.293-12.296 77.379-9.403-9.399c-4.34-4.34-10.851-4.34-15.191 0l-74.508 73.04-117.191 117.156-58.594-58.579c-4.34-4.34-10.852-4.34-15.192 0l-91.867 91.122-144.68-143.915c5.067-14.46 12.297-28.203 20.258-40.496l116.465 116.43c4.34 4.34 10.848 4.34 15.188 0l91.87-91.121 58.595 58.578c4.34 4.34 10.851 4.34 15.191 0L675.43 87.504c2.168-2.168 2.89-5.063 2.89-7.953 0-2.895-.722-6.512-2.168-8.68Zm-409.438 36.883c93.316-82.442 236.547-73.766 319.012 19.523 2.894 2.895 5.789 6.512 7.96 10.125l-78.128 78.106-58.594-58.578c-4.34-4.34-10.852-4.34-15.192 0l-91.867 91.12-111.402-110.648c8.68-10.847 18.086-20.972 28.21-29.648Zm224.973 514.902H145.91V428.844h345.777Zm10.851-215.508H231.992c-39.785-55.683-50.637-125.109-34-188.027L341.95 363.035c2.168 2.168 5.063 2.895 7.957 2.895 2.89 0 5.785-.727 7.957-2.895l91.867-91.12 58.594 58.577c4.344 4.34 10.852 4.34 15.192 0l112.125-111.37c21.703 82.444-4.34 169.948-68.72 227.077-15.917 14.465-34 26.035-52.808 34.715V418.72c-.722-6.508-5.789-11.57-11.574-11.57Zm237.992 235.036c-16.636 14.46-41.953 13.015-56.422-3.618l-81.02-91.843c-2.171-2.172-2.894-5.063-2.894-7.957 0-2.891 1.45-5.786 3.617-7.23l43.403-38.329c2.172-1.445 4.34-2.894 7.234-2.894h.723c2.894 0 5.789 1.449 7.234 3.617l81.02 91.843c7.234 7.957 10.129 18.079 10.129 28.926-.723 10.848-5.79 20.25-13.024 27.485Zm0 0"/><path fill="#fb653e" d="M174.844 500.438c0 20.25 16.64 36.16 36.172 36.16h5.785c7.957 0 14.469 6.507 14.469 14.465 0 7.953-6.512 14.46-14.47 14.46h-31.105c-5.785 0-10.851 5.063-10.851 10.848 0 5.785 5.066 10.848 10.851 10.848h31.106c20.258 0 36.172-15.91 36.172-36.157 0-20.25-16.641-36.16-36.172-36.16h-5.785c-7.957 0-14.47-6.507-14.47-14.465 0-7.953 6.513-14.46 14.47-14.46h31.105c5.785 0 10.852-5.063 10.852-10.848 0-5.785-5.067-10.848-10.852-10.848h-31.105c-19.532 0-36.172 15.91-36.172 36.156ZM290.586 587.219h56.426c5.785 0 10.851-5.063 10.851-10.848 0-5.785-5.066-10.848-10.851-10.848h-45.575v-28.925h45.575c5.785 0 10.851-5.063 10.851-10.848 0-5.785-5.066-10.848-10.851-10.848h-45.575v-28.925h45.575c5.785 0 10.851-5.063 10.851-10.848 0-5.785-5.066-10.848-10.851-10.848h-56.426c-5.785 0-10.848 5.063-10.848 10.848V576.37c0 5.785 5.063 10.848 10.848 10.848ZM423.691 587.219c21.7 0 39.063-17.356 39.063-39.051v-45.559c0-21.695-17.363-39.05-39.063-39.05-21.703 0-39.062 17.355-39.062 39.05v45.559c0 21.695 17.36 39.05 39.062 39.05Zm-17.363-83.887c0-9.402 7.957-17.355 17.363-17.355 9.403 0 17.36 7.953 17.36 17.355v45.559c0 9.402-7.957 17.359-17.36 17.359-9.406 0-17.363-7.957-17.363-17.36Zm0 0"/></svg>
